X: 12
T:Connaughtman's Rambles, The
T:Connachtman's Rambles, The
T:Gathering Dilisc
M:6/8
L:1/8
R:jig
N:Dilisc is a kind of edible seaweed.
D:Martin O'Connor: Connaughtman's Rambles
D:Matt Molloy: Stony Steps
D:Noel Hill & Tony McMahon: \'I gCnoc na Gra\'i
Z:id:hn-jig-234
K:Bm
FAA dAA|{Bd}BAA dAG|FAA dfe|dBB {Bd}BAG|
FAA dAA|~B3 def|gfe dfe|1 dBB B2 A/2|2 dBB ~B3:|
fbb faa|~f3 def|fbb faa|{fa}fed e2 d/2|
fbb faa|{fa}fef def|~g3 ~f3|dBB ~B3:||
